X:2477
T:Polska (allmän)
T:Svenska Folkdansar H2 nr 26
B:Traditioner av Svenska Folkdansar Häfte 2, nr 26
R:Polska
Z:Nils L
U:V=wedge
M:3/4
L:1/8
K:G
G>A BB/2A/2 GD | G>A BB/2A/2 GD | VG(B dg bg) | f/2g/2f/2e/2 d/2e/2d/2c/2 BA |
G>A BB/2A/2 GD | G>A BB/2A/2 GD | (GB dg bg) | (f/2g/2.a/2.b/2) (a2 Vg2) ::
(ba gf) e2 | (c'b a^g) a2 | (a=g fe) d2 | (ba gf) g2 :|
(:musicend:)
(:music:)
